Catalina-dark/actions/22/exchange-positions-clockwise.svg

<svg xmlns="http://www.w3.org/2000/svg" viewBox="0 0 22 22">
  <defs id="defs3051">
    <style type="text/css" id="current-color-scheme">
      .ColorScheme-Text {
        color:#f2f2f2;
      }
      .ColorScheme-Highlight {
        color:#3daee9;
      }
      </style>
  </defs>
 <path 
    style="fill:currentColor;fill-opacity:1;stroke:none" 
	d="M 3 3 L 3 10 L 11 10 L 11 3 L 3 3 z M 4 4 L 10 4 L 10 9 L 4 9 L 4 4 z M 12 4.078125 L 12 5.0898438 L 12 8 L 13 8 L 13 5.3554688 A 6 6 0 0 1 17 11 L 18 11 A 7 7 0 0 0 12 4.078125 z M 4 11 A 7 7 0 0 0 10 17.921875 L 10 16.910156 L 10 14 L 9 14 L 9 16.644531 A 6 6 0 0 1 5 11 L 4 11 z "
	class="ColorScheme-Text"
    />
  <path
    style="fill:currentColor;fill-opacity:1;stroke:none" 
    d="m 15.5,12 a 3.499991,3.499991 0 0 0 -3.5,3.5 3.499991,3.499991 0 0 0 0.699219,2.0938 L 13.416016,16.877 A 2.5,2.5 0 0 1 13,15.5 2.5,2.5 0 0 1 15.5,13 2.5,2.5 0 0 1 16.876953,13.416 L 17.59375,12.6992 A 3.499991,3.499991 0 0 0 15.5,12 m 2.800781,1.4063 -0.716797,0.7167 A 2.5,2.5 0 0 1 18,15.5 2.5,2.5 0 0 1 15.5,18 2.5,2.5 0 0 1 14.123047,17.584 L 13.40625,18.3008 A 3.499991,3.499991 0 0 0 15.5,19 3.499991,3.499991 0 0 0 19,15.5 3.499991,3.499991 0 0 0 18.300781,13.4063 Z" 
	class="ColorScheme-Highlight"/>
</svg>

<svg width="22" height="22" viewBox="3 3 16 16" xmlns="http://www.w3.org/2000/svg">
<defs>
<style id="current-color-scheme" type="text/css">.ColorScheme-Text {
        color:#f2f2f2;
      }
      .ColorScheme-Highlight {
        color:#3daee9;
      }</style>
</defs>
<path class="ColorScheme-Text" d="m3 3v7h8v-7h-8zm1 1h6v5h-6v-5zm8 0.078125v1.0117 2.9102h1v-2.6445a6 6 0 0 1 4 5.6445h1a7 7 0 0 0-6-6.9219zm-8 6.9219a7 7 0 0 0 6 6.9219v-1.0117-2.9102h-1v2.6445a6 6 0 0 1-4-5.6445h-1z" fill="currentColor"/>
<path class="ColorScheme-Highlight" d="m15.5 12a3.5 3.5 0 0 0-3.5 3.5 3.5 3.5 0 0 0 0.69922 2.0938l0.7168-0.7168a2.5 2.5 0 0 1-0.41602-1.377 2.5 2.5 0 0 1 2.5-2.5 2.5 2.5 0 0 1 1.377 0.416l0.7168-0.7168a3.5 3.5 0 0 0-2.0938-0.6992m2.8008 1.4063-0.7168 0.7167a2.5 2.5 0 0 1 0.41602 1.377 2.5 2.5 0 0 1-2.5 2.5 2.5 2.5 0 0 1-1.377-0.416l-0.7168 0.7168a3.5 3.5 0 0 0 2.0938 0.6992 3.5 3.5 0 0 0 3.5-3.5 3.5 3.5 0 0 0-0.69922-2.0937z" fill="currentColor"/>
</svg>
